svg/s/JE.svg

<svg width="16" height="12" viewBox="0 0 16 12" fill="none" xmlns="http://www.w3.org/2000/svg">
<g clip-path="url(#clip0_270_55024)">
<rect width="16" height="12" fill="white"/>
<path fill-rule="evenodd" clip-rule="evenodd" d="M0 0H16V12H0V0Z" fill="#F7FCFF"/>
<path d="M-1.35074 0.622384L-2.37501 0.0030334V1.2V11.2V12.397L-1.35074 11.7776L6.91815 6.77761L7.87339 6.2L6.91815 5.62238L-1.35074 0.622384Z" fill="#F7FCFF" stroke="#E31D1C" stroke-width="1.35"/>
<path d="M17.4604 0.616293L18.4744 0.0274086V1.2V11.2V12.3726L17.4604 11.7837L8.85103 6.7837L7.84596 6.2L8.85103 5.61629L17.4604 0.616293Z" fill="#F7FCFF" stroke="#E31D1C" stroke-width="1.35"/>
<path fill-rule="evenodd" clip-rule="evenodd" d="M6.83738 2.3515C6.83738 2.3515 6.40806 4.25066 7.89043 4.98006C7.89043 4.98006 9.31353 4.2044 8.99389 2.3515C8.99389 2.3515 8.38271 2.14706 7.89674 2.14706C7.41077 2.14706 6.83738 2.3515 6.83738 2.3515Z" fill="#E31D1C"/>
<path d="M6.71063 2.54761L6.38605 1.60175C6.99123 1.39407 7.51391 1.28793 7.96038 1.28793C8.41804 1.28793 8.89521 1.39922 9.39087 1.61687L8.98882 2.53248C8.61378 2.3678 8.27132 2.28793 7.96038 2.28793C7.63826 2.28793 7.21957 2.37296 6.71063 2.54761Z" fill="#FECA00"/>
<path d="M7.92499 3.95C8.27017 3.95 8.54999 3.67017 8.54999 3.325C8.54999 2.97982 8.27017 2.7 7.92499 2.7C7.57981 2.7 7.29999 2.97982 7.29999 3.325C7.29999 3.67017 7.57981 3.95 7.92499 3.95Z" fill="#FECA00"/>
</g>
<defs>
<clipPath id="clip0_270_55024">
<rect width="16" height="12" fill="white"/>
</clipPath>
</defs>
</svg>

<svg width="16" height="12" fill="none" xmlns="http://www.w3.org/2000/svg">
  <mask id="a" maskUnits="userSpaceOnUse" x="0" y="0" width="16" height="12">
    <path fill="#fff" d="M0 0h16v12H0z"/>
  </mask>
  <g mask="url(#a)">
    <path fill-rule="evenodd" clip-rule="evenodd" d="M0 0h16v12H0V0z" fill="#F7FCFF"/>
    <path d="M-1.35.622L-2.376.003v12.394l1.024-.62 8.27-5 .954-.577-.955-.578-8.269-5z" fill="#F7FCFF" stroke="#E31D1C" stroke-width="1.35"/>
    <path d="M17.46.616l1.014-.589v12.346l-1.014-.59-8.609-5L7.846 6.2l1.005-.584 8.61-5z" fill="#F7FCFF" stroke="#E31D1C" stroke-width="1.35"/>
    <path fill-rule="evenodd" clip-rule="evenodd" d="M6.837 2.352S6.408 4.25 7.89 4.98c0 0 1.424-.776 1.104-2.629 0 0-.611-.204-1.097-.204s-1.06.205-1.06.205z" fill="#E31D1C"/>
    <path d="M6.71 2.548l-.324-.946c.605-.208 1.128-.314 1.574-.314.458 0 .935.111 1.43.329l-.401.915c-.375-.164-.718-.244-1.029-.244-.322 0-.74.085-1.25.26zM7.925 3.95a.625.625 0 100-1.25.625.625 0 000 1.25z" fill="#FECA00"/>
  </g>
</svg>
